icons/linear-ele-food-dish-2-line.svg

<svg xmlns="http://www.w3.org/2000/svg" width="32px" height="32px" viewBox="0 0 32 32" version="1.1">
    <title>linear-ele-food-dish-2-line</title>
    <g id="linear-ele-food-dish-2-line" stroke-width="1" fill-rule="evenodd">
        <path d="M29,26 C29.5522847,26 30,26.4477153 30,27 C30,27.5522847 29.5522847,28 29,28 L3,28 C2.44771525,28 2,27.5522847 2,27 C2,26.4477153 2.44771525,26 3,26 L29,26 Z M12,6 C11.4477153,6 11,5.55228475 11,5 C11,4.44771525 11.4477153,4 12,4 L20,4 C20.5522847,4 21,4.44771525 21,5 C21,5.55228475 20.5522847,6 20,6 L17,6 L17.0008661,9.0352252 C24.2657313,9.54839185 30,15.6045408 30,23 C30,23.5522847 29.5522847,24 29,24 L3,24 C2.44771525,24 2,23.5522847 2,23 C2,15.6042016 7.73479477,9.54783624 15.0001337,9.03515462 L15,6 L12,6 Z M16,11 C9.78042405,11 4.66599302,15.7316879 4.06007801,21.7916926 L4.041,22 L27.958,22 L27.939922,21.7916926 C27.34394,15.8310322 22.3860506,11.1554943 16.3049748,11.0037999 L16,11 Z" id="&#24418;&#29366;" fill-rule="nonzero" />
    </g>
</svg>

<svg xmlns="http://www.w3.org/2000/svg" viewBox="0 0 32 32"><path fill="currentColor" d="M29 26a1 1 0 0 1 0 2H3a1 1 0 0 1 0-2zM12 6a1 1 0 0 1 0-2h8a1 1 0 0 1 0 2h-3v3.035c7.266.513 13 6.57 13 13.965a1 1 0 0 1-1 1H3a1 1 0 0 1-1-1C2 15.604 7.735 9.548 15 9.035V6zm4 5C9.78 11 4.666 15.732 4.06 21.792L4.041 22h23.917l-.018-.208c-.596-5.961-5.554-10.637-11.635-10.788z"/></svg>
